arkscan/icons/swyftx.svg

<svg viewBox="0 0 12 19" fill="none" xmlns="http://www.w3.org/2000/svg">
  <path
    d="M1.03245 18.6116C0.796677 18.8251 0.799506 18.945 0.973503 18.9775C2.77124 19.3128 7.39708 15.8371 9.01911 12.6967C9.13776 12.467 9.16647 12.4345 9.37277 12.3919C9.81483 12.3004 10.7579 11.8735 10.9937 11.7211C11.1823 11.5991 11.2884 11.3247 11.1705 11.2028C10.7874 10.715 9.87377 10.5625 9.66748 10.532C9.46118 10.5015 9.42051 10.431 9.52012 10.3186C9.8443 9.95274 9.96219 9.19046 9.87377 8.76368C8.42969 3.00128 4.65739 0.348752 4.36268 0.13533C4.06797 -0.0780919 3.80273 -0.047603 4.00903 0.287774C5.26555 2.33053 6.63195 6.75147 6.63195 8.94667C6.63195 11.1419 4.24479 11.3553 2.94807 11.3553C1.65134 11.3553 0.266197 11.1418 0.207255 11.1113C0.148313 11.0808 -0.116927 11.0503 0.0598993 11.1723C0.236726 11.2943 1.85764 11.8735 1.94605 11.904C2.03446 11.9345 2.21129 11.9955 1.94605 12.026C1.68081 12.0565 0.708263 12.5138 0.443024 12.7577C0.230832 12.9528 0.374297 12.961 0.472495 12.9407C2.00499 12.5748 4.68686 12.6358 5.1584 12.6968C5.62994 12.7578 5.57099 13.0627 5.42364 13.2456C5.27628 13.4285 1.26821 18.3982 1.03245 18.6116Z"
    fill="#007DFF" />
</svg>

<svg viewBox="0 0 12 19" fill="none" xmlns="http://www.w3.org/2000/svg"><path d="M1.032 18.612c-.235.213-.232.333-.058.366 1.797.335 6.423-3.14 8.045-6.281.119-.23.147-.262.354-.305.442-.092 1.385-.518 1.62-.67.19-.123.295-.397.178-.52-.384-.487-1.297-.64-1.504-.67-.206-.03-.246-.101-.147-.213.324-.366.442-1.129.354-1.555C8.43 3 4.657.349 4.363.135c-.295-.213-.56-.183-.354.153C5.266 2.33 6.632 6.75 6.632 8.947c0 2.195-2.387 2.408-3.684 2.408-1.297 0-2.682-.213-2.74-.244-.06-.03-.325-.06-.148.061.177.122 1.798.701 1.886.732.088.03.265.091 0 .122-.265.03-1.238.488-1.503.732-.212.195-.069.203.03.183 1.532-.366 4.214-.305 4.685-.244.472.06.413.366.266.549-.148.182-4.156 5.152-4.392 5.366Z" fill="#007DFF"/></svg>
